X:108
T: Édesanyám, de szépen felneveltél...
M: 4/4
L: 1/4
K: F
gfdd | ffgf | d<d d2 | 
gfed | cced | c<c c2 | 
BBdd | _edcB | d<c B2 | 
cBAG | ddcB | A<G G2 | 

